X:133
T:Thro’ the Wood Spinnet. RH.133
R:reel
S:Rev.R.Harrison’s MS,c1815,Cumbria
N:Originally marked R:Measure. PJH.
O:England
A:Temple Sowerby,Cumbria
Z:vmp.Simon Wilson. Review PJH, 2008.
M:C|
L:1/8
Q:1/2=80
K:A
d|cAa2 (a/g/f/g/)a2|ec (d/c/B/A/) GBBd|\
cAa2 a/g/f/g/a2|ec (d/c/B/A/) EAA:|!
|:d|cAce dfca|Ac (d/c/B/A/) GBBd|\
cAce dfca|Ac (d/c/B/A/) EAA:|

